Obsidian-SemiLight/actions/24s/view-barcode-add.svg

<svg viewBox="0 0 24 24" xmlns="http://www.w3.org/2000/svg"><path d="m4 7v10h1v-10zm2 0v7h1v-7zm2 0v10h1v-10zm2 0v10h2v-10zm3 0v10h1v-3h1v-7zm3 0v5h1v-5zm2 0v7h2v-7zm-1 8v2h-2v1h2v2h1v-2h2v-1h-2v-2z" fill="#4d4d4d"/></svg>

<svg xmlns="http://www.w3.org/2000/svg" viewBox="0 0 24 24">
  <defs id="defs3051">
    <style type="text/css" id="current-color-scheme">
      .ColorScheme-Text {
        color:#4d4d4d;
      }
      </style>
  </defs>
  <path
     style="fill:currentColor;fill-opacity:1;stroke:none" 
     d="M 4 7 L 4 17 L 5 17 L 5 7 L 4 7 z M 6 7 L 6 14 L 7 14 L 7 7 L 6 7 z M 8 7 L 8 17 L 9 17 L 9 7 L 8 7 z M 10 7 L 10 17 L 12 17 L 12 7 L 10 7 z M 13 7 L 13 17 L 14 17 L 14 14 L 15 14 L 15 7 L 13 7 z M 16 7 L 16 12 L 17 12 L 17 7 L 16 7 z M 18 7 L 18 14 L 20 14 L 20 7 L 18 7 z M 17 15 L 17 17 L 15 17 L 15 18 L 17 18 L 17 20 L 18 20 L 18 18 L 20 18 L 20 17 L 18 17 L 18 15 L 17 15 z "
     class="ColorScheme-Text"
     />
</svg>
